X:311
T: Shave The Monkey
R: jig
M:6/8
L:1/8
Q:1/8=140
K:Gmaj
|d^cd cAc| BGB A2 F|DEF GFG |AGA B2 G|
d^cd cAc| BGB A2 F|DEF GFG |AGF G2  A:|
K:F
|BAB G2A|BAB GAB| AGA F2 G|AGA FGA|
BAB G2 A| BAB G2 d|^c=cB AGF|DE^F G3:|

